symbols/web/tv/materialsymbolsrounded/tv_wght500gradN25_24px.svg

<svg xmlns="http://www.w3.org/2000/svg" height="24" width="24"><path d="M9.1 21.075q-.45 0-.75-.313-.3-.312-.3-.762v-1H4.2q-.9 0-1.525-.625-.625-.625-.625-1.525V5.175q0-.9.625-1.525.625-.625 1.525-.625h15.6q.9 0 1.525.625.625.625.625 1.525V16.85q0 .9-.625 1.525Q20.7 19 19.8 19h-3.85v1q0 .45-.3.762-.3.313-.75.313ZM4.2 16.85h15.6V5.175H4.2V16.85Zm0 0V5.175 16.85Z"/></svg>

<svg xmlns="http://www.w3.org/2000/svg" height="24" width="24"><path d="M9.1 21.075Q8.65 21.075 8.35 20.762Q8.05 20.45 8.05 20V19H4.2Q3.3 19 2.675 18.375Q2.05 17.75 2.05 16.85V5.175Q2.05 4.275 2.675 3.65Q3.3 3.025 4.2 3.025H19.8Q20.7 3.025 21.325 3.65Q21.95 4.275 21.95 5.175V16.85Q21.95 17.75 21.325 18.375Q20.7 19 19.8 19H15.95V20Q15.95 20.45 15.65 20.762Q15.35 21.075 14.9 21.075ZM4.2 16.85H19.8Q19.8 16.85 19.8 16.85Q19.8 16.85 19.8 16.85V5.175Q19.8 5.175 19.8 5.175Q19.8 5.175 19.8 5.175H4.2Q4.2 5.175 4.2 5.175Q4.2 5.175 4.2 5.175V16.85Q4.2 16.85 4.2 16.85Q4.2 16.85 4.2 16.85ZM4.2 16.85Q4.2 16.85 4.2 16.85Q4.2 16.85 4.2 16.85V5.175Q4.2 5.175 4.2 5.175Q4.2 5.175 4.2 5.175Q4.2 5.175 4.2 5.175Q4.2 5.175 4.2 5.175V16.85Q4.2 16.85 4.2 16.85Q4.2 16.85 4.2 16.85Z"/></svg>
